X:1518
T:Wind that Shakes the Barley, The
R:reel
N:"collected from F. O'Neill"
B:"O'Neill's Dance Music of Ireland, 1518"
T: an gao.t a .bio.dgeas an t-orna.
Z:transcribed by John B. Walsh, walsh@math.ubc.ca 8/23/96
M:C|
L:1/8
K:D
B|A2AB AFED|B2 BA BcdB|A2 AB AFED|gfed BcdB|
A2 AB AFED|B2 BA BcdB|A2 AB AFED|gfed B2d||
e|f2 fd g2 ge|f2 fd Bcde|f2 fd g2 fg|afed Bcde|
f2fd g2 ge|f2 fd Bcde|fafd gbge|afed Bcd !D.C.!||


